assets/tiendamia-logo.svg

<svg xmlns="http://www.w3.org/2000/svg" width="397" height="109" fill="none"><g clip-path="url(#a)"><path fill="#7800C8" d="M334.347 96.708c.364-.259-.01.009 0 0Zm62.515-16.172H342.9c-7.457 0-11.052 1.214-13.666 3.426-.915.667-5.341 4.312-10.129 7.763-.851.312-.947-.299-.947-.31 0 0 .052-3.253.007-5.288-.084-3.979-2.066-5.591-7.404-5.591h-54.953v9.959a3.554 3.554 0 0 0 3.549 3.552s39.865.023 41.613-.007c4.841-.074 4.718 3.278 4.718 3.278v4.822c0 2.872 2.353 6.829 6.853 6.836 4.541.005 7.28-2.01 7.28-2.01 11.027-7.799 13.896-9.82 14.527-10.259 0 0 .004-.007.02-.02 3.601-2.69 4.678-2.593 7.679-2.642h51.272a3.552 3.552 0 0 0 3.544-3.552v-9.957h-.001Z"/><path fill="#fff" d="m26.41 55.385-.189.004c-.781.036-1.674.064-2.618.064-2.405 0-3.386-.711-3.386-2.448V34.257h9.276V22.67h-9.276V6.368H6.755V22.67H.012v11.587h6.743v22.872c0 9.069 6.575 10.291 13.01 10.291 3.548 0 9.281-.542 9.522-.562l.583-.053V58.75c-.048-1.164-.832-3.365-3.46-3.365ZM68.394 39.53c1.149-4.027 4.571-6.584 8.923-6.584 4.273 0 7.74 2.67 8.678 6.584H68.394Zm8.922-17.985c-13.293 0-22.939 9.763-22.939 23.217 0 13.454 9.726 23.22 23.126 23.22 9.829 0 17.423-4.411 21.383-12.424l.383-.772-13.627-2.372-.234.332c-1.565 2.222-4.451 3.549-7.718 3.549-4.515 0-8.145-2.978-9.07-7.328h31.823v-1.112c0-19.399-11.949-26.31-23.127-26.31ZM129.961 21.545c-4.683 0-9.082 1.805-12.334 5.012.009-.134.017-.274.023-.414-.131-2.75-2.346-3.477-3.507-3.474h-9.647V66.86h13.466V38.625c2.383-2.879 5.372-4.461 8.44-4.461 4.17 0 6.662 2.632 6.662 7.038v25.66h13.466v-28.75c.001-10.066-6.502-16.567-16.569-16.567ZM309.193 21.545c-5.686 0-10.622 2.489-14.332 7.214-2.662-4.661-7.544-7.214-13.863-7.214-4.444 0-8.806 1.824-12.007 4.957a8.746 8.746 0 0 0-.004-.539c-.439-3.191-3.153-3.294-3.523-3.294h-9.655V66.86h13.463V38.625c2.383-2.879 5.309-4.461 8.257-4.461 4.056 0 6.479 2.564 6.479 6.852v25.846h13.461V38.625c2.381-2.879 5.307-4.461 8.26-4.461 1.518 0 6.476.494 6.476 6.852v25.846h13.467v-28.75c-.003-10.066-6.471-16.567-16.479-16.567ZM338.853 0c-4.643 0-8.416 3.817-8.416 8.511 0 4.721 3.695 8.418 8.416 8.418 4.772 0 8.511-3.697 8.511-8.418 0-4.694-3.819-8.511-8.511-8.511ZM346.166 26.143c-.132-2.75-2.347-3.475-3.507-3.473h-9.96v44.189h13.468l-.001-.644c-.023-13.425-.049-39.065 0-40.072ZM374.231 55.896c-6.137 0-10.423-4.577-10.423-11.128 0-6.608 4.286-11.226 10.423-11.226 6.142 0 10.429 4.618 10.429 11.226 0 6.448-4.388 11.128-10.429 11.128Zm22.599 10.321c-.022-13.428-.049-39.067 0-40.073-.133-2.75-2.347-3.476-3.508-3.475l-9.283.031v3.4c-3.039-3.026-7.044-4.555-11.932-4.555-12.23 0-21.45 9.983-21.45 23.224 0 13.235 9.22 23.216 21.45 23.216 4.928 0 9.022-1.619 12.201-4.814l.021.564h.035c.311 2.441 2.306 3.117 3.374 3.125h9.094l-.002-.643ZM225.719 55.896c-6.137 0-10.426-4.576-10.426-11.129 0-6.608 4.289-11.224 10.426-11.224 6.138 0 10.424 4.615 10.424 11.224 0 6.45-4.385 11.129-10.424 11.129Zm22.597-29.752c-.127-2.748-2.347-3.476-3.509-3.474l-9.28.028V26.1c-3.041-3.026-7.045-4.555-11.932-4.555-12.229 0-21.451 9.983-21.451 23.222s9.222 23.217 21.451 23.217c4.929 0 9.021-1.617 12.193-4.813l.026.565h.037c.314 2.439 2.303 3.115 3.369 3.123h9.096l-.001-.643c-.02-13.426-.048-39.067.001-40.072ZM174.931 55.832c-5.881 0-10.319-4.8-10.319-11.16 0-6.412 4.34-11.066 10.319-11.066 5.978 0 10.315 4.655 10.315 11.066.001 6.36-4.433 11.16-10.315 11.16Zm23.5-46.079-.001-.197-.012-.005c-.227-2.374-2.076-3.131-3.336-3.229l-10.114-.047v14.323c0 1.918.066 3.976.122 5.616.004.17.012.334.016.493-2.431-2.77-6.783-5.255-12.984-5.255-12.368 0-21.344 9.764-21.344 23.219 0 13.237 9.219 23.225 21.441 23.225 5.698 0 10.227-2.455 12.749-5.275v.603c0 2.11 1.251 3.401 3.447 3.548.523.025 9.377-.003 9.378 0l.642-.003V9.957l.001-.134-.001-.036a.21.21 0 0 1-.004-.034ZM42.466 0c-4.64 0-8.417 3.817-8.417 8.511 0 4.721 3.699 8.418 8.417 8.418 4.772 0 8.511-3.697 8.511-8.418C50.977 3.817 47.158 0 42.466 0ZM49.779 26.143c-.131-2.75-2.347-3.475-3.507-3.473h-9.96v44.189h13.47l-.002-.644c-.023-13.425-.051-39.065-.001-40.072Z"/></g><defs><clipPath id="a"><path fill="#fff" d="M0 0h396.85v108.977H0z"/></clipPath></defs></svg>

<svg width="397" height="109" viewBox="0 0 397 109" fill="none" xmlns="http://www.w3.org/2000/svg">
<g clip-path="url(#clip0_16_113)">
<path d="M334.347 96.708C334.711 96.449 334.337 96.717 334.347 96.708ZM396.862 80.536H342.9C335.443 80.536 331.848 81.75 329.234 83.962C328.319 84.629 323.893 88.274 319.105 91.725C318.254 92.037 318.158 91.426 318.158 91.415C318.158 91.415 318.21 88.162 318.165 86.127C318.081 82.148 316.099 80.536 310.761 80.536H255.808V90.495C255.808 92.453 257.399 94.047 259.357 94.047C259.357 94.047 299.222 94.07 300.97 94.04C305.811 93.966 305.688 97.318 305.688 97.318V102.14C305.688 105.012 308.041 108.969 312.541 108.976C317.082 108.981 319.821 106.966 319.821 106.966C330.848 99.167 333.717 97.146 334.348 96.707C334.348 96.707 334.352 96.7 334.368 96.687C337.969 93.997 339.046 94.094 342.047 94.045H393.319C395.274 94.045 396.863 92.451 396.863 90.493V90.451V90.445V80.536H396.862Z" fill="#7800C8"/>
<path d="M26.41 55.385L26.221 55.389C25.44 55.425 24.547 55.453 23.603 55.453C21.198 55.453 20.217 54.742 20.217 53.005V34.257H29.493V22.67H20.217V6.36798H6.75502V22.67H0.0120239V34.257H6.75502V57.129C6.75502 66.198 13.33 67.42 19.765 67.42C23.313 67.42 29.046 66.878 29.287 66.858L29.87 66.805V58.75C29.822 57.586 29.038 55.385 26.41 55.385Z" fill="white"/>
<path d="M68.394 39.53C69.543 35.503 72.965 32.946 77.317 32.946C81.59 32.946 85.057 35.616 85.995 39.53H68.394ZM77.316 21.545C64.023 21.545 54.377 31.308 54.377 44.762C54.377 58.216 64.103 67.982 77.503 67.982C87.332 67.982 94.926 63.571 98.886 55.558L99.269 54.786L85.642 52.414L85.408 52.746C83.843 54.968 80.957 56.295 77.69 56.295C73.175 56.295 69.545 53.317 68.62 48.967H100.443V47.855C100.443 28.456 88.494 21.545 77.316 21.545Z" fill="white"/>
<path d="M129.961 21.545C125.278 21.545 120.879 23.35 117.627 26.557C117.636 26.423 117.644 26.283 117.65 26.143C117.519 23.393 115.304 22.666 114.143 22.669H104.496V66.86H117.962V38.625C120.345 35.746 123.334 34.164 126.402 34.164C130.572 34.164 133.064 36.796 133.064 41.202V66.862H146.53V38.112C146.531 28.046 140.028 21.545 129.961 21.545Z" fill="white"/>
<path d="M309.193 21.545C303.507 21.545 298.571 24.034 294.861 28.759C292.199 24.098 287.317 21.545 280.998 21.545C276.554 21.545 272.192 23.369 268.991 26.502C268.997 26.318 268.992 26.137 268.987 25.963C268.548 22.772 265.834 22.669 265.464 22.669H265.46H255.809V66.86H269.272V38.625C271.655 35.746 274.581 34.164 277.529 34.164C281.585 34.164 284.008 36.728 284.008 41.016V66.862H297.469V38.625C299.85 35.746 302.776 34.164 305.729 34.164C307.247 34.164 312.205 34.658 312.205 41.016V66.862H325.672V38.112C325.669 28.046 319.201 21.545 309.193 21.545Z" fill="white"/>
<path d="M338.853 0C334.21 0 330.437 3.817 330.437 8.511C330.437 13.232 334.132 16.929 338.853 16.929C343.625 16.929 347.364 13.232 347.364 8.511C347.364 3.817 343.545 0 338.853 0Z" fill="white"/>
<path d="M346.166 26.143C346.034 23.393 343.819 22.668 342.659 22.67H332.699V66.859H346.167L346.166 66.215C346.143 52.79 346.117 27.15 346.166 26.143Z" fill="white"/>
<path d="M374.231 55.896C368.094 55.896 363.808 51.319 363.808 44.768C363.808 38.16 368.094 33.542 374.231 33.542C380.373 33.542 384.66 38.16 384.66 44.768C384.66 51.216 380.272 55.896 374.231 55.896ZM396.83 66.217C396.808 52.789 396.781 27.15 396.83 26.144C396.697 23.394 394.483 22.668 393.322 22.669L384.039 22.7V26.1C381 23.074 376.995 21.545 372.107 21.545C359.877 21.545 350.657 31.528 350.657 44.769C350.657 58.004 359.877 67.985 372.107 67.985C377.035 67.985 381.129 66.366 384.308 63.171L384.329 63.735H384.364C384.675 66.176 386.67 66.852 387.738 66.86H396.832L396.83 66.217Z" fill="white"/>
<path d="M225.719 55.896C219.582 55.896 215.293 51.32 215.293 44.767C215.293 38.159 219.582 33.543 225.719 33.543C231.857 33.543 236.143 38.158 236.143 44.767C236.143 51.217 231.758 55.896 225.719 55.896ZM248.316 26.144C248.189 23.396 245.969 22.668 244.807 22.67L235.527 22.698V26.1C232.486 23.074 228.482 21.545 223.595 21.545C211.366 21.545 202.144 31.528 202.144 44.767C202.144 58.006 211.366 67.984 223.595 67.984C228.524 67.984 232.616 66.367 235.788 63.171L235.814 63.736H235.851C236.165 66.175 238.154 66.851 239.22 66.859H248.316L248.315 66.216C248.295 52.79 248.267 27.149 248.316 26.144Z" fill="white"/>
<path d="M174.931 55.832C169.05 55.832 164.612 51.032 164.612 44.672C164.612 38.26 168.952 33.606 174.931 33.606C180.909 33.606 185.246 38.261 185.246 44.672C185.247 51.032 180.813 55.832 174.931 55.832ZM198.431 9.75302L198.43 9.55602L198.418 9.55102C198.191 7.17702 196.342 6.42002 195.082 6.32202L184.968 6.27502V20.598C184.968 22.516 185.034 24.574 185.09 26.214C185.094 26.384 185.102 26.548 185.106 26.707C182.675 23.937 178.323 21.452 172.122 21.452C159.754 21.452 150.778 31.216 150.778 44.671C150.778 57.908 159.997 67.896 172.219 67.896C177.917 67.896 182.446 65.441 184.968 62.621V63.224C184.968 65.334 186.219 66.625 188.415 66.772C188.938 66.797 197.792 66.769 197.793 66.772L198.435 66.769V9.95702L198.436 9.82302L198.435 9.78702C198.433 9.77702 198.431 9.76202 198.431 9.75302Z" fill="white"/>
<path d="M42.466 0C37.826 0 34.049 3.817 34.049 8.511C34.049 13.232 37.748 16.929 42.466 16.929C47.238 16.929 50.977 13.232 50.977 8.511C50.977 3.817 47.158 0 42.466 0Z" fill="white"/>
<path d="M49.779 26.143C49.648 23.393 47.432 22.668 46.272 22.67H36.312V66.859H49.782L49.78 66.215C49.757 52.79 49.729 27.15 49.779 26.143Z" fill="white"/>
</g>
<defs>
<clipPath id="clip0_16_113">
<rect width="396.85" height="108.977" fill="white"/>
</clipPath>
</defs>
</svg>
